packages/ui-icons/svg/Solid/remove-bookmark.svg

<svg viewBox="0 0 1920 1920" version="1.1" xmlns="http://www.w3.org/2000/svg">
    <path d="M1261.96322,920.139786 L1141.3022,1040.80081 L960.481253,859.866138 L779.546585,1040.80081 L658.885565,920.139786 L839.820233,739.205118 L658.885565,558.27045 L779.546585,437.723153 L960.481253,618.657821 L1141.3022,437.723153 L1261.96322,558.27045 L1081.02855,739.205118 L1261.96322,920.139786 Z M1415.37671,0 L505.585796,0 C411.422437,0 335,76.5361606 335,170.585796 L335,1920 L960.481253,1544.71125 L1585.96251,1920 L1585.96251,170.585796 C1585.96251,76.5361606 1509.42635,0 1415.37671,0 L1415.37671,0 Z" stroke="none" stroke-width="1" fill-rule="evenodd"/>
</svg>

<svg viewBox="0 0 1920 1920" xmlns="http://www.w3.org/2000/svg">
    <path d="m1261.963 920.14-120.66 120.66L960.48 859.867l-180.934 180.935-120.66-120.662L839.82 739.205 658.886 558.27l120.66-120.547 180.935 180.935 180.821-180.935 120.661 120.547-180.934 180.935 180.934 180.935ZM1415.377 0H505.586C411.422 0 335 76.536 335 170.586V1920l625.481-375.289L1585.963 1920V170.586C1585.963 76.536 1509.426 0 1415.377 0Z" fill-rule="evenodd"/>
</svg>
